X: 16155
T: Green Jacket, The
R: jig
M: 6/8
K: Gmajor
B2 A BcB|ABA GED|B,DE GBA|BcA Bcd|
B2 A BcB|ABA GED|B,DE GBA|BcA Bcd:|
g2f gfe|BcA Bdf|g2b agf|edB def
g2f gfe|BcA Bdf|g2b agf|1 edB def:|2 edB d2c||

